X: 6510
T: Cat Wants Out, The
R: slide
M: 12/8
K: Dmajor
|:d2A B2A FGA B2A|FGA B2A G2A B2c|
d2A B2A FGA B2d|a2f efe d3 d2c:|
|:a^ga b2a f2d d2A|B2A FGA B2A d2f|
a^ga b2a f2d d2A|B2A ABc d3 d2f:|

